img/right-arrow.svg

<?xml version="1.0" encoding="iso-8859-1"?>
<!-- Generator: Adobe Illustrator 19.0.0, SVG Export Plug-In . SVG Version: 6.00 Build 0)  -->
<svg version="1.1" id="Layer_1" xmlns="http://www.w3.org/2000/svg" xmlns:xlink="http://www.w3.org/1999/xlink" x="0px" y="0px"
	 viewBox="0 0 492.004 492.004" style="enable-background:new 0 0 492.004 492.004;" xml:space="preserve">
<g>
	<g>
		<path d="M382.678,226.804L163.73,7.86C158.666,2.792,151.906,0,144.698,0s-13.968,2.792-19.032,7.86l-16.124,16.12
			c-10.492,10.504-10.492,27.576,0,38.064L293.398,245.9l-184.06,184.06c-5.064,5.068-7.86,11.824-7.86,19.028
			c0,7.212,2.796,13.968,7.86,19.04l16.124,16.116c5.068,5.068,11.824,7.86,19.032,7.86s13.968-2.792,19.032-7.86L382.678,265
			c5.076-5.084,7.864-11.872,7.848-19.088C390.542,238.668,387.754,231.884,382.678,226.804z"/>
	</g>
</g>
<g>
</g>
<g>
</g>
<g>
</g>
<g>
</g>
<g>
</g>
<g>
</g>
<g>
</g>
<g>
</g>
<g>
</g>
<g>
</g>
<g>
</g>
<g>
</g>
<g>
</g>
<g>
</g>
<g>
</g>
</svg>

<svg width="493" height="493" viewBox="0 0 493 493" fill="none" xmlns="http://www.w3.org/2000/svg">
<g clip-path="url(#clip0)">
<path d="M382.678 226.804L163.73 7.86C158.666 2.792 151.906 0 144.698 0C137.49 0 130.73 2.792 125.666 7.86L109.542 23.98C99.05 34.484 99.05 51.556 109.542 62.044L293.398 245.9L109.338 429.96C104.274 435.028 101.478 441.784 101.478 448.988C101.478 456.2 104.274 462.956 109.338 468.028L125.462 484.144C130.53 489.212 137.286 492.004 144.494 492.004C151.702 492.004 158.462 489.212 163.526 484.144L382.678 265C387.754 259.916 390.542 253.128 390.526 245.912C390.542 238.668 387.754 231.884 382.678 226.804Z" fill="#FFA500"/>
</g>
<defs>
<clipPath id="clip0">
<rect width="492.004" height="492.004" fill="white"/>
</clipPath>
</defs>
</svg>
